!!!OTL: IN GLUCKGLUCK LEB ICH
!!!ARE: Europa, Mitteleuropa, Deutschland, Schlesien
!!!SCT: E1626
!!!YEM: Copyright 1995, estate of Helmut Schaffrath.
**kern
*ICvox
*Ivox
*M3/4
*k[b-]
*F:
{8cc
8a
8ff
=1
8dd
8dd
8dd
8dd
8ff
8dd
=2
4cc
8a}
{8cc
8g
8a
=3
8b-
8b-
8b-
8b-
8g
8b-
=4
4b-
8a}
{8cc
8a
8ff
=5
8dd
8dd
8dd
8dd
8ff
8dd
=6
4cc
8a}
{8cc
8g
8a
=7
8b-
8b-
8b-
8b-
8g
8b-
=8
4b-
8a}
==
!!!AGN: Staende -, Handwerker -, Gesellen - Lied; Trink - Lied
!!!ONB: ESAC (Essen Associative Code) Database: ERK3
!!!AMT: simple triple
!!!AIN: vox
!!!EED: Helmut Schaffrath
!!!EEV: 1.0
*-
